X:1
T:Title
L:1/8
M:6/8
K:G
V:1 treble nm="Grand Piano"
V:1
 z3 z2[Q:1/4=160] D | G3 G2 G | F3 D2 B, | D3 E2 F | F3 E3- | E6- | E3- E2 E | F3 F2 E | E3 D2 C | %9
 C3 C2 D | C3[K:bass] B,3- | B,6- | B,3- B,2 B, | E3 E2 F | G3 F2 G | A3 G2 F | E3 D3- | D6- | %18
 D3- D2 E | D3 D2 E | D3 D2 E | D3 D2 E | D3 D3- | D3- D2 D | G3 G2 G | F3 D2 B, | D3 E2 F | %27
 F3 E3- | E6- | E3- E2 E | F3 F2 E | E3 D2 C | C3 C2 D | C3[K:bass] B,3- | B,6- | B,3- B,2 B, | %36
 E3 E2 D | D3 C2 B, | B,3 C2 D | D3 C3- | C6- | C3- C2 E | D3 D2 E | D3 F2 A | c3 c2 d | c3 B2 D | %46
[M:4/4] B4 B3 B | A4 A3 A | c4 c2 c2 | B2 AG- G3 G | G4 G3 A | F2 ED- D3 D | E4 D3 B, | D4 D3 D | %54
 B4 B3 B | A4 A3 A | c4 c2 c2 | B2 AG- G3 G | G4 G3 A | F2 ED- D3 D | E4 F3 F | G4 G4- | %62
[M:6/8] G6 |] %63

